!!!COM: Bach, Johann Sebastian
!!!OTL: Sinfonia No. 14; in B- major; BWV 800
!! Three-part sinfonia
!! Bach-Gesellschaft edition, pp.40-41
!! Performance duration: 1:10; performance tempo: 82.3 quarter-notes per minute.
!! (Andras Schiff, piano, "Two-Part Inventions BWV 772a-786; Three-part
!! Inventions BWV 787-801" Decca 411 974-2)
**kern	**kern	**kern
*staff2	*staff1	*staff1
*M4/4	*M4/4	*M4/4
*MM82.3	*MM82.3	*MM82.3
*B-:	*B-:	*B-:
=1	=1	=1
8B-	[4b-	1r
8d	.	.
8c	16b-]	.
.	16b-	.
8B-	16a	.
.	16g	.
8A	8f	.
8G	8g	.
8F	16d	.
.	16e-	.
8E-	8f	.
=2	=2	=2
4D	16B-	8r
.	16F	.
.	16B-	[8ff
.	16d	.
4F	8c	16ff]
.	.	16ee-
.	[8e-	16dd
.	.	16cc
4G	8e-]	8b-
.	16d	8dd
.	16en	.
4c	8.eM	16a
.	.	16b-
.	.	8cc
.	32d	.
.	32e	.
=3	=3	=3
[4d	4f	16f
.	.	16ff
.	.	16dd
.	.	16b-
16d]	8g	8ee-
16d	.	.
16B-	8b-	[8gg
16G	.	.
8c	8e-	16gg]
.	.	16ee-
[8e-	8g	16cc
.	.	16a
16e-]	8a	8cc
16c	.	.
16A	[8cc	8ff
16F	.	.
=4	=4	=4
[4B-	16cc]	4dd
.	16f	.
.	16b-	.
.	16dd	.
16B-]	8g	4een
16B-	.	.
16A	8b-	.
16G	.	.
8F	8a	8ff
8G	16d	4b-
.	16e-	.
16D	16f	.
16E-	16g	.
8F	16e-	[8a
.	16f	.
=5	=5	=5
8BB-	16d	8a]
.	16f	.
8E-	16B-	[8g
.	16c	.
16BB-	16d	8g]
16C	16e-	.
8D	16c	[8f
.	16d	.
8GG	16B-	8f]
.	16d	.
8C	16G	[8e-
.	16A	.
16GG	16B-	8e-]
16AA-	16c	.
8BB-	16A-	[8d
.	16B-	.
=6	=6	=6
8EE-	4G	16d]
.	.	16g
8E-	.	16e-
.	.	16c
16E-	8F	8a
16c	.	.
16A	8r	[8cc
16F	.	.
8D	2r	16cc]
.	.	16f
8G	.	16b-
.	.	16dd
16E-	.	8cc
16C	.	.
16F	.	[8ee-
16A	.	.
=7	=7	=7
16BB-	[4b-	8ee-]
16B-	.	.
16G	.	4dd
16D	.	.
4E-T	16b-]	.
.	16b-	.
.	16a	8cc
.	16g	.
16D	8f#	8dd
16c	.	.
16B-	8g	8r
16A	.	.
16G	16d	4r
16B-	16e-	.
16A-	8fn	.
16G	.	.
=8	=8	=8
16F	4Bn	8r
16A-	.	.
16G	.	[8gg
16F	.	.
8E-	[4c	16gg]
.	.	16gg
8C	.	16ff
.	.	16ee-
16F	8c]	8dd
16E-	.	.
16F	8a-	8ff
16G	.	.
16A-	16d	16bn
16G	16e-	16cc
16F	8f	8dd
16E-	.	.
=9	=9	=9
16F	8Bn	8g
16A-	.	.
16G	8d	8bn
16F	.	.
16E-	16g	2cc
16D	16b-	.
16C	16a-	.
16BB-	16g	.
16AA-	8f	.
16C	.	.
16F	8a-	.
16A-	.	.
8G	16d	4bn
.	16e-	.
8GG	[8f	.
=10	=10	=10
8C	16f]	[2cc
.	16f	.
[8c	16en	.
.	16d	.
16c]	8e	.
16B-	.	.
16A	[8b-	.
16G	.	.
8F	16b-]	2cc_
.	16a	.
8A	16g	.
.	16f	.
16En	16g	.
16F	16a	.
8G	16b-	.
.	16g	.
=11	=11	=11
[4AA	16en	4.cc]
.	16g	.
.	16e	.
.	16c	.
16AA]	8f	.
16A	.	.
16F	8a	[8ff
16D	.	.
16BB-	2g	16ff]
16D	.	16een
16BB-	.	16dd
16GG	.	16ee
8C	.	8.ee
8CC	.	.
.	.	16ff
=12	=12	=12
16FF	4a	8ff
16G	.	.
16F	.	[8aa
16En	.	.
8D	[4b-	16aa]
.	.	16aa
16E	.	16gg
16F	.	16ff
[2G	16b-]	8een
.	16a	.
.	16g	8gg
.	16f	.
.	8en	16cc#
.	.	16dd
.	8g	8ee
=13	=13	=13
16G]	16c#	8.a
16B-	16d	.
16A	8en	.
16G	.	16bn
16F#	8A	16ccn
16D	.	16b
16En	[8a	16cc
16F#	.	16dd
16G	8a]	16b
16F#	.	16a
16G	[8g	16b
16A	.	16cc#
8B-	16g]	[4dd
.	16fn	.
8A	16g	.
.	16a	.
=14	=14	=14
16G	16b-	4dd]
16En	16g	.
16F	16a	.
16G	16b-	.
8A	16en	4cc#
.	16b-	.
8AA	16a	.
.	16g	.
16D	4f	8dd
16A	.	.
16F	.	[8ff
16D	.	.
8d	4r	16ff]
.	.	16ee-
[8f	.	16dd
.	.	16ccn
=15	=15	=15
16f]	2r	8bn
16e-	.	.
16d	.	8dd
16c	.	.
8Bn	.	16g
.	.	16a
8G	.	8b
16c	8r	4e-
16G	.	.
16E-	[8cc	.
16C	.	.
16B-	16cc]	[4ee-
16d	16b-	.
16c	16a	.
16B-	16g	.
=16	=16	=16
16A	8f	8ee-]
16G	.	.
16F	8a	16dd
16E-	.	16cc
8.F	16d	8b-
.	16e-	.
.	8f	8a
16G	.	.
16A-	8B-	8.dd
16B-	.	.
16A-	[8f	.
16G	.	16ee-
16F	4f_	16dd
16E-	.	16cc
16D	.	16b-
16C	.	16a-
=17	=17	=17
8BB-	16f]	8.g
.	16d	.
8C	4e-	.
.	.	16a-
16GG	.	8b-
16AA-	.	.
8BB-	8d	8f
4EE-	8e-	8g
.	8r	[8gg
8r	8.cc	16gg]
.	.	16ff
[8e-	.	16ee-
.	16b-	16dd
=18	=18	=18
8e-]	16a	8cc
.	16g	.
[8d	8f	8ff
16d]	8g	16b-
16d	.	16cc
16c	8b-	8dd
16B-	.	.
16c	16e-	8g
16d	16f	.
16c	8g	[8ee-
16B-	.	.
16A	8c	16ee-]
16B-	.	16dd
16A	[8f	16cc
16G	.	16b-
=19	=19	=19
8F	16f]	8a
.	16e-	.
8BB-	16d	8dd
.	16c	.
16E-	8B-	16g
16D	.	16a
16C	8d	8b-
16BB-	.	.
16C	16A	8e-
16BB-	16B-	.
16AA	8c	[8cc
16GG	.	.
16AA	[4F	16cc]
16GG	.	16b-
16FF	.	16a
16EE-	.	16g
=20	=20	=20
16DD	8F]	4f
16E-	.	.
16D	[8b-	.
16C	.	.
16BB-	16b-]	4r
16G	16b-	.
16F	16a	.
16E-	16g	.
16D	8f	8r
16e-	.	.
16d	8a	[8ff
16c	.	.
8.B-	16d	16ff]
.	16e-	16ee-
.	8f	16dd
16A	.	16cc
=21	=21	=21
8G	16B-	8b-
.	16A	.
[8F	16B-	8dd
.	16d	.
16F]	8c	16a
16E-	.	16b-
16D	[8e-	[8cc
16C	.	.
8BB-	8e-]	16cc]
.	.	16f
8D	8d	16b-
.	.	16dd
16AA	16r	8cc
16BB-	16b-	.
8C	16a	[8ee-
.	16g	.
=22	=22	=22
8DD	4f	16ee-]
.	.	16a
8D	.	16b-
.	.	16dd
8BB-	16r	[4ff
.	16dd	.
8D	16b-	.
.	16a-	.
8EE-	4g	16ff]
.	.	16b-
8E-	.	16cc
.	.	16ee-
8C	16r	4gg
.	16ee-	.
[8E-	16cc	.
.	16b-	.
=23	=23	=23
8E-]	4ff	16bb-
.	.	16aan
8e-	.	16gg
.	.	16ff
8d	4r	16bb-
.	.	32aa
.	.	32gg
8B-	.	32ff
.	.	32ee-
.	.	32dd
.	.	32cc
8G	32r	[4b-
.	32a	.
.	32g	.
.	32f	.
8E-	16g	.
.	16e-	.
8F	8d	16b-]
.	.	8b-
8FF	8c	.
.	.	16a
=24	=24	=24
1BB-;	1d;	1b-;
====	====	====
*-	*-	*-
